src/images/cabecera_pdf_opt.svg

<?xml version="1.0" encoding="UTF-8" standalone="no"?>
<!-- Created with Inkscape (http://www.inkscape.org/) -->

<svg
   width="210.07916mm"
   height="83.858444mm"
   viewBox="0 0 210.07916 83.858444"
   version="1.1"
   id="svg1"
   inkscape:version="1.3.1 (91b66b0783, 2023-11-16)"
   sodipodi:docname="cabecera_pdf_opt.svg"
   xml:space="preserve"
   xmlns:inkscape="http://www.inkscape.org/namespaces/inkscape"
   xmlns:sodipodi="http://sodipodi.sourceforge.net/DTD/sodipodi-0.dtd"
   xmlns:xlink="http://www.w3.org/1999/xlink"
   xmlns="http://www.w3.org/2000/svg"
   xmlns:svg="http://www.w3.org/2000/svg"><sodipodi:namedview
     id="namedview1"
     pagecolor="#ffffff"
     bordercolor="#000000"
     borderopacity="0.25"
     inkscape:showpageshadow="2"
     inkscape:pageopacity="0.0"
     inkscape:pagecheckerboard="0"
     inkscape:deskcolor="#d1d1d1"
     inkscape:document-units="mm"
     inkscape:zoom="1"
     inkscape:cx="289"
     inkscape:cy="231"
     inkscape:window-width="1920"
     inkscape:window-height="1006"
     inkscape:window-x="0"
     inkscape:window-y="0"
     inkscape:window-maximized="1"
     inkscape:current-layer="layer1" /><defs
     id="defs1"><linearGradient
       id="linearGradient2"
       inkscape:collect="always"><stop
         style="stop-color:#11141d;stop-opacity:0;"
         offset="0"
         id="stop2" /><stop
         style="stop-color:#11141d;stop-opacity:0.25585938;"
         offset="0.76531196"
         id="stop3" /><stop
         style="stop-color:#11141d;stop-opacity:0;"
         offset="0.93162811"
         id="stop5" /></linearGradient><radialGradient
       inkscape:collect="always"
       xlink:href="#linearGradient2"
       id="radialGradient3"
       cx="49.568031"
       cy="34.234604"
       fx="49.568031"
       fy="34.234604"
       r="31.622366"
       gradientUnits="userSpaceOnUse"
       gradientTransform="matrix(1.0542589,0,0,1.0542589,-3.2186744,-1.8575327)" /><clipPath
       clipPathUnits="userSpaceOnUse"
       id="clipPath7"><circle
         style="fill:#7f7f7f;fill-opacity:1;stroke-width:0.330504"
         id="circle7"
         cx="121.66566"
         cy="46.896183"
         r="29.763447" /></clipPath></defs><g
     inkscape:label="Layer 1"
     inkscape:groupmode="layer"
     id="layer1"><rect
       style="fill:#e5e8f0;fill-opacity:1;stroke-width:0.285791"
       id="rect1"
       width="210.07916"
       height="75.522781"
       x="0"
       y="-4.724425e-19"
       rx="0.078188784" /><circle
       style="fill:url(#radialGradient3);stroke-width:0.370198"
       id="path2-2-6"
       cx="49.038864"
       cy="34.234604"
       r="33.338161" /><image
       width="59.53125"
       height="59.53125"
       preserveAspectRatio="none"
       xlink:href="data:image/png;base64,iVBORw0KGgoAAAANSUhEUgAAAOEAAADhCAMAAAAJbSJIAAAAA1BMVEWmOzkZOHs4AAAASElEQVR4&#10;nO3BgQAAAADDoPlTX+AIVQEAAAAAAAAAAAAAAAAAAAAAAAAAAAAAAAAAAAAAAAAAAAAAAAAAAAAA&#10;AAAAAAAAAADwDcaiAAFXD1ujAAAAAElFTkSuQmCC&#10;"
       id="image1"
       x="91.897423"
       y="17.220654"
       clip-path="url(#clipPath7)"
       transform="matrix(0.85762744,0,0,0.85762744,-55.304754,-6.0225505)" /><path
       id="path2-2"
       style="fill:#49597d;fill-opacity:1;stroke-width:0.304666"
       d="M 49.038864,6.7980346 A 27.436665,27.436665 0 0 0 21.602296,34.234604 27.436665,27.436665 0 0 0 49.038864,61.671172 27.436665,27.436665 0 0 0 76.475432,34.234604 27.436665,27.436665 0 0 0 49.038864,6.7980346 Z m 0,2.8049967 A 24.631662,24.631662 0 0 1 73.670435,34.234604 24.631662,24.631662 0 0 1 49.038864,58.866175 24.631662,24.631662 0 0 1 24.407292,34.234604 24.631662,24.631662 0 0 1 49.038864,9.6030313 Z" /></g></svg>

<?xml version="1.0" encoding="UTF-8"?>
<!-- Created with Inkscape (http://www.inkscape.org/) -->
<svg width="210.08mm" height="99.492mm" version="1.1" viewBox="0 0 210.08 99.492" xml:space="preserve" xmlns="http://www.w3.org/2000/svg" xmlns:xlink="http://www.w3.org/1999/xlink"><defs><radialGradient id="radialGradient3" cx="49.568" cy="34.235" r="31.622" gradientTransform="matrix(1.0543 0 0 1.0543 -3.2187 -1.8575)" gradientUnits="userSpaceOnUse"><stop stop-color="#11141d" stop-opacity="0" offset="0"/><stop stop-color="#11141d" stop-opacity=".25586" offset=".76531"/><stop stop-color="#11141d" stop-opacity="0" offset=".93163"/></radialGradient><clipPath id="clipPath7"><circle cx="121.67" cy="46.896" r="29.763" fill="#7f7f7f" stroke-width=".3305"/></clipPath></defs><rect y="-4.7244e-19" width="210.08" height="83.858" rx=".078189" fill="#e5e8f0" stroke-width=".30115"/><circle cx="49.039" cy="34.235" r="33.338" fill="url(#radialGradient3)" stroke-width=".3702"/><image transform="matrix(.85763 0 0 .85763 -55.305 -6.0226)" x="91.897" y="17.221" width="59.531" height="59.531" clip-path="url(#clipPath7)" preserveAspectRatio="none" xlink:href="data:image/png;base64,iVBORw0KGgoAAAANSUhEUgAAAOEAAADhCAMAAAAJbSJIAAAAA1BMVEWmOzkZOHs4AAAASElEQVR4
nO3BgQAAAADDoPlTX+AIVQEAAAAAAAAAAAAAAAAAAAAAAAAAAAAAAAAAAAAAAAAAAAAAAAAAAAAA
AAAAAAAAAADwDcaiAAFXD1ujAAAAAElFTkSuQmCC
"/><path d="m49.039 6.798a27.437 27.437 0 0 0-27.437 27.437 27.437 27.437 0 0 0 27.437 27.437 27.437 27.437 0 0 0 27.437-27.437 27.437 27.437 0 0 0-27.437-27.437zm0 2.805a24.632 24.632 0 0 1 24.632 24.632 24.632 24.632 0 0 1-24.632 24.632 24.632 24.632 0 0 1-24.632-24.632 24.632 24.632 0 0 1 24.632-24.632z" fill="#49597d" stroke-width=".30467"/></svg>
